X:133
T: Merry Old Woman
N: O'Farrell's Pocket Companion v.2 (Sky ed. p.71)
N: "Irish"
N: Ten measures in second part ... ?
M: 9/8
L: 1/8
Q: 320
R: slip jig
K: Dmix
A|: Add ded c2A|f2f fga gfe|aba gfe f2d|A2B c2A GFE :|
D2D F2F E2E | D2D F2F GFE|D2D F2F E2 f/g/|aba gfe f2d|
A2B c2A GFE :|
